app/assets/images/heroicons/micro/cog.svg

<svg width="16" height="16" viewBox="0 0 16 16" fill="none" xmlns="http://www.w3.org/2000/svg">
<path fill-rule="evenodd" clip-rule="evenodd" d="M4.5 1.93782C4.85872 1.73072 5.31741 1.85362 5.52452 2.21234L6.17746 3.34326C6.52824 3.20547 6.88793 3.11004 7.25 3.05521V1.75C7.25 1.33579 7.58579 1 8 1C8.41421 1 8.75 1.33579 8.75 1.75V3.05638C9.11684 3.11228 9.47665 3.20868 9.82229 3.3437L10.4755 2.21234C10.6826 1.85362 11.1413 1.73072 11.5 1.93782C11.8587 2.14493 11.9816 2.60362 11.7745 2.96234L11.1219 4.09269C11.4081 4.3212 11.6718 4.58369 11.9067 4.87842L13.0377 4.22548C13.3964 4.01837 13.8551 4.14128 14.0622 4.5C14.2693 4.85872 14.1464 5.31741 13.7877 5.52452L12.6567 6.17746C12.7945 6.52824 12.89 6.88793 12.9448 7.25H14.25C14.6642 7.25 15 7.58579 15 8C15 8.41421 14.6642 8.75 14.25 8.75H12.9436C12.8877 9.11684 12.7913 9.47665 12.6563 9.82229L13.7877 10.4755C14.1464 10.6826 14.2693 11.1413 14.0622 11.5C13.8551 11.8587 13.3964 11.9816 13.0377 11.7745L11.9073 11.1219C11.6788 11.4081 11.4163 11.6718 11.1216 11.9067L11.7745 13.0377C11.9816 13.3964 11.8587 13.8551 11.5 14.0622C11.1413 14.2693 10.6826 14.1464 10.4755 13.7877L9.82254 12.6567C9.47176 12.7945 9.11207 12.89 8.75 12.9448L8.75 14.25C8.75 14.6642 8.41421 15 8 15C7.58579 15 7.25 14.6642 7.25 14.25V12.9436C6.88316 12.8877 6.52335 12.7913 6.17771 12.6563L5.52452 13.7877C5.31741 14.1464 4.85872 14.2693 4.5 14.0622C4.14128 13.8551 4.01837 13.3964 4.22548 13.0377L4.87809 11.9073C4.59194 11.6788 4.32816 11.4163 4.09326 11.1216L2.96234 11.7745C2.60362 11.9816 2.14493 11.8587 1.93782 11.5C1.73072 11.1413 1.85362 10.6826 2.21234 10.4755L3.34326 9.82254C3.20547 9.47176 3.11004 9.11207 3.05521 8.75H1.75C1.33579 8.75 1 8.41421 1 8C1 7.58579 1.33579 7.25 1.75 7.25H3.05638C3.11228 6.88316 3.20868 6.52335 3.3437 6.17771L2.21234 5.52452C1.85362 5.31741 1.73072 4.85872 1.93782 4.5C2.14493 4.14128 2.60362 4.01837 2.96234 4.22548L4.09269 4.87809C4.3212 4.59194 4.58369 4.32816 4.87842 4.09326L4.22548 2.96234C4.01837 2.60362 4.14128 2.14493 4.5 1.93782ZM5.64075 5.41366C4.45052 6.4973 4.13113 8.29892 4.96891 9.75C5.15372 10.0701 5.38146 10.35 5.64065 10.5865L7.13397 8L5.64075 5.41366ZM8.43301 8.75L6.94016 11.3357C7.84505 11.6229 8.86302 11.5432 9.75 11.0311C10.637 10.519 11.215 9.67728 11.4187 8.75H8.43301ZM11.4197 7.25H8.43301L6.93979 4.66366C8.47336 4.17471 10.1933 4.79892 11.0311 6.25C11.2159 6.5701 11.3444 6.90726 11.4197 7.25Z" fill="black"/>
</svg>

<svg xmlns="http://www.w3.org/2000/svg" viewBox="0 0 16 16" fill="currentColor" aria-hidden="true" data-slot="icon">
  <path fill-rule="evenodd" d="M4.5 1.938a.75.75 0 0 1 1.025.274l.652 1.131c.351-.138.71-.233 1.073-.288V1.75a.75.75 0 0 1 1.5 0v1.306a5.03 5.03 0 0 1 1.072.288l.654-1.132a.75.75 0 1 1 1.298.75l-.652 1.13c.286.23.55.492.785.786l1.13-.653a.75.75 0 1 1 .75 1.3l-1.13.652c.137.351.233.71.288 1.073h1.305a.75.75 0 0 1 0 1.5h-1.306a5.032 5.032 0 0 1-.288 1.072l1.132.654a.75.75 0 0 1-.75 1.298l-1.13-.652c-.23.286-.492.55-.786.785l.652 1.13a.75.75 0 0 1-1.298.75l-.653-1.13c-.351.137-.71.233-1.073.288v1.305a.75.75 0 0 1-1.5 0v-1.306a5.032 5.032 0 0 1-1.072-.288l-.653 1.132a.75.75 0 0 1-1.3-.75l.653-1.13a4.966 4.966 0 0 1-.785-.786l-1.13.652a.75.75 0 0 1-.75-1.298l1.13-.653a4.965 4.965 0 0 1-.288-1.073H1.75a.75.75 0 0 1 0-1.5h1.306a5.03 5.03 0 0 1 .288-1.072l-1.132-.653a.75.75 0 0 1 .75-1.3l1.13.653c.23-.286.492-.55.786-.785l-.653-1.13A.75.75 0 0 1 4.5 1.937Zm1.14 3.476a3.501 3.501 0 0 0 0 5.172L7.135 8 5.641 5.414ZM8.434 8.75 6.94 11.336a3.491 3.491 0 0 0 2.81-.305 3.49 3.49 0 0 0 1.669-2.281H8.433Zm2.987-1.5H8.433L6.94 4.664a3.501 3.501 0 0 1 4.48 2.586Z" clip-rule="evenodd"/>
</svg>
